symbols/web/all_inbox/materialsymbolsrounded/all_inbox_wght500gradN25_24px.svg

<svg xmlns="http://www.w3.org/2000/svg" height="24" width="24"><path d="M14.025 14.8q-1.075 0-1.987-.525-.913-.525-1.413-1.45h-2.55v3.1H19.95v-3.1H17.4q-.5.925-1.412 1.45-.913.525-1.963.525Zm0-1.975q.675 0 1.15-.363.475-.362.675-.962.075-.3.313-.475.237-.175.612-.175h3.175v-6.8H8.075v6.8h3.175q.375 0 .613.187.237.188.312.463.2.6.675.962.475.363 1.175.363Zm-.025 3.1H19.95 8.075 14Zm-5.925 2.15q-.875 0-1.513-.637-.637-.638-.637-1.513V4.05q0-.875.637-1.513Q7.2 1.9 8.075 1.9H19.95q.875 0 1.513.637.637.638.637 1.513v11.875q0 .875-.637 1.513-.638.637-1.513.637ZM4.05 22.1q-.875 0-1.512-.638-.638-.637-.638-1.512V7q0-.425.325-.75t.75-.325q.45 0 .762.325.313.325.313.75v12.95H17q.425 0 .75.312.325.313.325.763 0 .425-.325.75T17 22.1Z"/></svg>

<svg xmlns="http://www.w3.org/2000/svg" height="24" width="24"><path d="M14.025 14.8Q12.95 14.8 12.038 14.275Q11.125 13.75 10.625 12.825H8.075V15.925Q8.075 15.925 8.075 15.925Q8.075 15.925 8.075 15.925H19.95Q19.95 15.925 19.95 15.925Q19.95 15.925 19.95 15.925V12.825H17.4Q16.9 13.75 15.988 14.275Q15.075 14.8 14.025 14.8ZM14.025 12.825Q14.7 12.825 15.175 12.462Q15.65 12.1 15.85 11.5Q15.925 11.2 16.163 11.025Q16.4 10.85 16.775 10.85H19.95V4.05Q19.95 4.05 19.95 4.05Q19.95 4.05 19.95 4.05H8.075Q8.075 4.05 8.075 4.05Q8.075 4.05 8.075 4.05V10.85H11.25Q11.625 10.85 11.863 11.037Q12.1 11.225 12.175 11.5Q12.375 12.1 12.85 12.462Q13.325 12.825 14.025 12.825ZM14 15.925Q15.075 15.925 15.988 15.925Q16.9 15.925 17.4 15.925H19.95Q19.95 15.925 19.95 15.925Q19.95 15.925 19.95 15.925H8.075Q8.075 15.925 8.075 15.925Q8.075 15.925 8.075 15.925H10.625Q11.125 15.925 12.038 15.925Q12.95 15.925 14 15.925ZM8.075 18.075Q7.2 18.075 6.562 17.438Q5.925 16.8 5.925 15.925V4.05Q5.925 3.175 6.562 2.537Q7.2 1.9 8.075 1.9H19.95Q20.825 1.9 21.463 2.537Q22.1 3.175 22.1 4.05V15.925Q22.1 16.8 21.463 17.438Q20.825 18.075 19.95 18.075ZM4.05 22.1Q3.175 22.1 2.538 21.462Q1.9 20.825 1.9 19.95V7Q1.9 6.575 2.225 6.25Q2.55 5.925 2.975 5.925Q3.425 5.925 3.737 6.25Q4.05 6.575 4.05 7V19.95Q4.05 19.95 4.05 19.95Q4.05 19.95 4.05 19.95H17Q17.425 19.95 17.75 20.262Q18.075 20.575 18.075 21.025Q18.075 21.45 17.75 21.775Q17.425 22.1 17 22.1Z"/></svg>
